X:1
T:The Internationale
M:4/4
L:1/8
K:G
 D| G3 FA GD B,| E4 C3 E| A3 G^F ED C| B,4 z2 D2| G3 ^FA GD B,| E4 C2 AG|\
 ^F2 A2 c2 F2| G4 z2 BA| ^F4 EF GE| F4 D2 ^CD| E3 A, A3 G| ^F4 z2 z A|\
 A3 ^FD D^C D| B4 GG ^FE| ^F2 A2 G2 E2| D2 z2 z2 BA| G4 D3 B,| E4 C2 AG|\
 ^F4 E3 D| B4 z2 B2| B4 A3 D| G4 ^F3 F| E3 ^D E2 A2| A4 z2 BA| G4 D3 B,|\
 E4 C2 AG| ^F4 E3 D| B4 z2 B2| d4 c2 B2|A-^G-A-B c2 z c| B3 G A3 ^F|\
 G4 z2 z||
